icons/logto-light.svg

<svg width="256" height="256" viewBox="0 0 256 256" fill="none" xmlns="http://www.w3.org/2000/svg">
<rect width="256" height="256" rx="60" fill="#F4F2ED"/>
<path fill-rule="evenodd" clip-rule="evenodd" d="M48 61.9801C48 56.4636 48 53.7054 49.0696 51.4853C50.0123 49.5288 51.5284 47.8705 53.4372 46.7081C55.6033 45.3891 58.483 44.9975 64.2425 44.2144L146.384 33.0464C153.839 32.0327 157.567 31.5258 160.464 32.596C163.007 33.5355 165.13 35.2797 166.472 37.5331C168 40.1 168 43.6707 168 50.8121V205.188C168 212.329 168 215.901 166.472 218.467C165.13 220.72 163.007 222.465 160.464 223.404C157.567 224.475 153.839 223.967 146.384 222.954L64.2425 211.786C58.4831 211.003 55.6033 210.611 53.4372 209.292C51.5284 208.13 50.0123 206.471 49.0696 204.515C48 202.295 48 199.537 48 194.02V61.9801ZM136 114.031C136 112.351 136 111.511 136.282 110.848C136.531 110.263 136.929 109.774 137.427 109.445C137.992 109.07 138.739 108.994 140.233 108.842L146.924 108.161C148.685 107.981 149.565 107.892 150.244 108.221C150.842 108.509 151.335 109.014 151.646 109.654C152 110.381 152 111.372 152 113.35V142.65C152 144.629 152 145.619 151.646 146.346C151.335 146.986 150.842 147.491 150.244 147.78C149.565 148.108 148.685 148.019 146.924 147.839L140.234 147.158C138.739 147.006 137.992 146.931 137.427 146.556C136.929 146.226 136.531 145.738 136.282 145.153C136 144.489 136 143.649 136 141.969V114.031ZM190.578 52H180V208H190.578C196.676 208 199.725 208 202.055 206.81C204.104 205.763 205.769 204.093 206.813 202.037C208 199.702 208 196.644 208 190.528V69.4721C208 63.3562 208 60.2984 206.813 57.9625C205.769 55.9077 204.104 54.2372 202.055 53.1902C199.725 52 196.676 52 190.578 52Z" fill="url(#gradient)"/>
<linearGradient id="gradient" x1="-1.52391" y1="164.781" x2="195.558" y2="84.2148" gradientUnits="userSpaceOnUse">
<stop stop-color="#4B2EFB"/>
<stop offset="1" stop-color="#E65FFC"/>
</linearGradient>
</svg>

<svg xmlns="http://www.w3.org/2000/svg" width="256" height="256" fill="none"><rect width="256" height="256" fill="#F4F2ED" rx="60"/><path fill="url(#gradient)" fill-rule="evenodd" d="M48 61.98c0-5.516 0-8.275 1.07-10.495.942-1.956 2.458-3.614 4.367-4.777 2.166-1.319 5.046-1.71 10.806-2.494l82.141-11.168c7.455-1.013 11.183-1.52 14.08-.45 2.543.94 4.666 2.684 6.008 4.937C168 40.1 168 43.671 168 50.813v154.375c0 7.141 0 10.713-1.528 13.279-1.342 2.253-3.465 3.998-6.008 4.937-2.897 1.071-6.625.563-14.08-.45l-82.141-11.168c-5.76-.783-8.64-1.175-10.806-2.494-1.909-1.162-3.425-2.821-4.367-4.777C48 202.295 48 199.537 48 194.02zm88 52.051c0-1.68 0-2.52.282-3.183a3.15 3.15 0 0 1 1.145-1.403c.565-.375 1.312-.451 2.806-.603l6.691-.681c1.761-.18 2.641-.269 3.32.06.598.288 1.091.793 1.402 1.433.354.727.354 1.718.354 3.696v29.3c0 1.979 0 2.969-.354 3.696a3.06 3.06 0 0 1-1.402 1.434c-.679.328-1.559.239-3.32.059l-6.69-.681c-1.495-.152-2.242-.227-2.807-.602a3.15 3.15 0 0 1-1.145-1.403c-.282-.664-.282-1.504-.282-3.184zM190.578 52H180v156h10.578c6.098 0 9.147 0 11.477-1.19a10.9 10.9 0 0 0 4.758-4.773C208 199.702 208 196.644 208 190.528V69.472c0-6.116 0-9.174-1.187-11.51a10.9 10.9 0 0 0-4.758-4.772C199.725 52 196.676 52 190.578 52" clip-rule="evenodd"/><linearGradient id="gradient" x1="-1.524" x2="195.558" y1="164.781" y2="84.215" gradientUnits="userSpaceOnUse"><stop stop-color="#4B2EFB"/><stop offset="1" stop-color="#E65FFC"/></linearGradient></svg>
